X:0038
M:6/8
L:1/8
Q:3/8=84
K:G % Aird has two sharps, this must be a typo
gfe dBc|ded def|gfe def|gdB A2G|
gfe dBc|ded def|gfe dgd|BGG G3:|

